assets/images/web/refresh-icon.svg

<svg xmlns:svg="http://www.w3.org/2000/svg" xmlns="http://www.w3.org/2000/svg" version="1.1" width="13.126254" height="15.936553" viewBox="0 0 10.501003 12.749242">
<path d="M5.25 0 9.563 2.812 5.25 5.625 5.25 0zM2.55 12.001C0.066 10.511-0.741 7.283 0.75 4.798 1.73 3.164 3.463 2.255 5.241 2.25L5.24 3.093C3.749 3.099 2.295 3.861 1.473 5.232 0.221 7.317 0.898 10.026 2.984 11.277 5.07 12.529 7.778 11.852 9.03 9.767 9.456 9.056 9.659 8.272 9.658 7.499l0.843 0C10.502 8.42 10.261 9.353 9.753 10.2 8.262 12.685 5.035 13.492 2.55 12.001z" fill="#f60"/>
</svg>

<svg xmlns="http://www.w3.org/2000/svg" viewBox="0 0 10.5 12.75">
  <path fill="#f60" d="M5.25 0l4.3 2.8-4.3 2.83V0zm-2.7 12C.07 10.5-.75 7.28.75 4.8c.98-1.64 2.7-2.54 4.5-2.55v.84c-1.5 0-2.96.76-3.78 2.13-1.25 2.1-.57 4.8 1.5 6.05 2.1 1.25 4.8.57 6.06-1.5.43-.72.63-1.5.63-2.28h.84c0 .92-.24 1.85-.75 2.7-1.5 2.5-4.7 3.3-7.2 1.8z"/>
</svg>
